X:3724
L:1/8
M:2/2
K:Edor
 EB, B,2 EGFE | DA, A,2 DEFD | GEED EFGA | (3Bcd ec dBAF | EB, B,2 EGFE | DA, A,2 DEFD | 
 E2 BE dBAF |1 DEFA BEE^D :|2 DEFA BE E2 |: |: eB B2 egfe | defa gfed | (3Bcd e^d efge | 
 fgaf gfed | eB B2 GBFB | EBBA Bdef | g3 e f3 d |1 efed BABd :|2 efed BAFD |]

